X:1
T:Panis angelicus
T:Panis angelicus
T:Gaspar van Weerbeke
T:Source : Motetti B---Venetia---O.Petrucci---1503. Editor : André Vierendeels (11/05/14).
C:Gaspar van Weerbeke
%%score [ 1 [ 2 3 ] 4 ]
L:1/8
Q:1/4=120
M:4/2
K:C
V:1 treble nm="Cantus" snm="C"
V:2 treble-8 nm="Tenor 1" snm="T 1"
V:3 treble-8 nm="Tenor 2" snm="T 2"
V:4 bass nm="Bassus" snm="B"
V:1
 c8 c8 | c4 B4 c4 A4 | B8 !fermata!B8 | c8 B8 | c4 A4 c3 B A3 G | !fermata!G8 z4 G4 | G8 E4 F4- | %7
w: Pa- nis|an- * ge- *|li- cus|fit pa-|nis _ ho- * mi- *|num, dat|pa- nis coe-|
 F4 F4 !fermata!G8 | z4 G4 G4 c4 | c4 d8 d4 | !fermata!e8 e4 e4 | e4 e6 d2 c4 | B4 e4 d4 c4- | %13
w: * li- tus|fi- gu- *|ris ter- mi-|num: O res|mi- ra- * *||
 c4 B4 c4 z4 | c8 B8 | A8 G8 | A8 G8 | F8 !fermata!G8 |[M:3/4] z6 | z6 | z6 | z6 | G2 G2 G2 | %23
w: * bi- lis!|man- du-|cat Do-|* mi-|* num,|||||pau- per, ser-|
 c4 d2 | e3 d cB | AG d3 c | c4 B2 | c6- | c6 |] %29
w: vus et|hu- * * *||* mi-|lis.|_|
V:2
 g8 g8 | c4 d4 g4 d4 | d8 !fermata!g8 | g8 g8 | e4 c4 A4 A4 | !fermata!B8 z4 G4 | G8 G4 A4- | %7
w: Pa- nis|an- * ge- *|li- cus|fit pa-|is _ ho- mi-|num, dat|pa- nis coe-|
 A4 A4 !fermata!G8 | z4 e4 e8 | e4 d8 d4 | !fermata!c8 g4 g4 | g4 g6 f2 e4 | d4 g4 f4 e4 | %13
w: * li- tus|fi- gu-|ris ter- mi-|num: O res|mi- ra- * *||
 d8 c4 z4 | g8 g8 | e8 e8 | c8 e8 | d8 !fermata!d8 |[M:3/4] d2 d2 d2 | e4 f2 | g3 f/e/ d2 | %21
w: bi- lis!|man- du-|cat Do-|* mi-|* num,|pau- per, ser-|vus et|hu- * * *|
 e2 c2 A2 | B2 G2 g2 | a3 g f2 | e4 z2 | c2 d2 B2 | c2 G2 g2 | g6 | g6 |] %29
w: |mi- lis, [et|hu- * mi-|lis]|pau- per, ser-|vus et hu-|mi-|lis.|
V:3
 c8 e8 | f4 g4 e4 f4 | g8 !fermata!d8 | e8 d8 | c8 c4 d4 | !fermata!e8 z4 B4 | B8 c4 d4- | %7
w: Pa- nis|an- * ge- *|li- cus|fit pa-|nis ho- mi-|num, dat|pa- nis coe-|
 d4 d4 !fermata!B8 | z4 G4 G8 | A4 B8 B4 | !fermata!G8 z8 | z16 | z16 | z16 | e8 d8 | c8 B8 | %16
w: * li- tus|fi- gu-|ris ter- mi-|num:||||man- du-|cat Do-|
 A8 c8 | A8 !fermata!B8 |[M:3/4] z6 | z6 | G2 G2 G2 | c4 d2 | e3 d cB | A4 B2 | c3 d e2 | f4 g2 | %26
w: * mi-|* num,|||pau- per, ser-|vus et|hu- * * *||||
 e2 d4 | c6- | c6 |] %29
w: * mi-|lis.|_|
V:4
 C8 C8 | A,4 G,4 C,4 D,4 | G,8 !fermata!G,8 | C,8 G,8 | A,8 F,4 F,4 | !fermata!E,8 z4 E,4 | %6
w: Pa- nis|an- * ge- *|li- cus|fit pa-|nis ho- mi-|num, dat|
 E,8 E,4 D,4- | D,4 D,4 !fermata!E,8 | z4 C,4 C,8 | C,4 B,,8 B,,4 | !fermata!C,8 z8 | z16 | z16 | %13
w: pa- nis coe-|* li- tus|fi- gu-|ris ter- mi-|num:|||
 z16 | C,8 G,8 | A,8 E,8 | F,8 C,8 | D,8 !fermata!G,8 |[M:3/4] G,2 G,2 G,2 | C4 D2 | E2 D3 C/B,/ | %21
w: |man- du-|cat Do-|* mi-|* num,|pau- per, ser-|vus et|hu- * * *|
 A,3 G, F,2 | E,4 G,2 | F,3 E, D,2 | C,2 CB, A,G, | F,2 D,2 E,2 | C,2 G,4 | C,6 | C,6 |] %29
w: * * mi-|lis, [et|hu- * mi-|lis], ser- * * *|* * vus|et hu-|mi-|lis.|

